res/skins/Deere/icon/ic_library_locked.svg

<?xml version="1.0" encoding="UTF-8" standalone="no"?>
<svg
   xmlns:osb="http://www.openswatchbook.org/uri/2009/osb"
   xmlns:dc="http://purl.org/dc/elements/1.1/"
   xmlns:cc="http://creativecommons.org/ns#"
   xmlns:rdf="http://www.w3.org/1999/02/22-rdf-syntax-ns#"
   xmlns:svg="http://www.w3.org/2000/svg"
   xmlns="http://www.w3.org/2000/svg"
   xmlns:xlink="http://www.w3.org/1999/xlink"
   xmlns:sodipodi="http://sodipodi.sourceforge.net/DTD/sodipodi-0.dtd"
   xmlns:inkscape="http://www.inkscape.org/namespaces/inkscape"
   version="1.1"
   width="10"
   height="12"
   id="svg2"
   inkscape:version="0.92.3 (unknown)"
   sodipodi:docname="ic_library_locked.svg"
   style="display:inline"
   inkscape:export-filename=""
   inkscape:export-xdpi="135"
   inkscape:export-ydpi="135">
  <sodipodi:namedview
     pagecolor="#ffffff"
     bordercolor="#666666"
     borderopacity="1"
     objecttolerance="10"
     gridtolerance="10"
     guidetolerance="10"
     inkscape:pageopacity="0"
     inkscape:pageshadow="2"
     inkscape:window-width="1366"
     inkscape:window-height="740"
     id="namedview26"
     showgrid="true"
     inkscape:zoom="16"
     inkscape:cx="3.5160967"
     inkscape:cy="8.3522998"
     inkscape:window-x="0"
     inkscape:window-y="0"
     inkscape:window-maximized="1"
     inkscape:current-layer="ic_library_crates"
     inkscape:object-paths="true"
     showguides="true"
     inkscape:guide-bbox="true"
     inkscape:snap-midpoints="true"
     inkscape:snap-page="true"
     inkscape:snap-bbox="true"
     inkscape:snap-bbox-midpoints="true"
     inkscape:bbox-nodes="true">
    <inkscape:grid
       type="xygrid"
       id="grid3788"
       empspacing="4"
       visible="true"
       enabled="true"
       snapvisiblegridlinesonly="true"
       originx="4"
       spacingx="1"
       spacingy="1"
       color="#00ffe0"
       opacity="0.1254902"
       empcolor="#0072ff"
       empopacity="0.25098039"
       originy="4"
       dotted="false" />
  </sodipodi:namedview>
  <title
     id="title5647">Mixxx 1.12+ iconset</title>
  <defs
     id="defs28">
    <linearGradient
       id="linearGradient5515"
       osb:paint="solid">
      <stop
         style="stop-color:#000000;stop-opacity:1;"
         offset="0"
         id="stop5517" />
    </linearGradient>
    <linearGradient
       id="linearGradient4942">
      <stop
         style="stop-color:#ff6600;stop-opacity:1;"
         offset="0"
         id="stop4944" />
      <stop
         style="stop-color:#de5800;stop-opacity:1;"
         offset="1"
         id="stop4946" />
    </linearGradient>
    <linearGradient
       id="linearGradient5695-6">
      <stop
         style="stop-color:#3c3c3c;stop-opacity:1;"
         offset="0"
         id="stop5697-6" />
      <stop
         style="stop-color:#000000;stop-opacity:1;"
         offset="1"
         id="stop5699-7" />
    </linearGradient>
    <linearGradient
       id="linearGradient5695-4">
      <stop
         style="stop-color:#646464;stop-opacity:1;"
         offset="0"
         id="stop5697-7" />
      <stop
         style="stop-color:#000000;stop-opacity:1;"
         offset="1"
         id="stop5699-6" />
    </linearGradient>
    <linearGradient
       id="linearGradient4942-73">
      <stop
         style="stop-color:#ff6600;stop-opacity:1;"
         offset="0"
         id="stop4944-6" />
      <stop
         style="stop-color:#de5800;stop-opacity:1;"
         offset="1"
         id="stop4946-6" />
    </linearGradient>
    <linearGradient
       id="linearGradient4942-5">
      <stop
         style="stop-color:#ff6600;stop-opacity:1;"
         offset="0"
         id="stop4944-9" />
      <stop
         style="stop-color:#de5800;stop-opacity:1;"
         offset="1"
         id="stop4946-5" />
    </linearGradient>
    <linearGradient
       gradientTransform="translate(62.635811,-72.272089)"
       inkscape:collect="always"
       xlink:href="#linearGradient4942"
       id="linearGradient4257"
       x1="4"
       y1="16.448982"
       x2="28.090696"
       y2="16.448982"
       gradientUnits="userSpaceOnUse" />
    <linearGradient
       gradientTransform="translate(62.635811,-72.272089)"
       inkscape:collect="always"
       xlink:href="#linearGradient4942"
       id="linearGradient4259"
       gradientUnits="userSpaceOnUse"
       x1="16.045349"
       y1="8.3183727"
       x2="16.045349"
       y2="32.409069" />
    <linearGradient
       gradientTransform="translate(62.635811,-72.272089)"
       inkscape:collect="always"
       xlink:href="#linearGradient4942"
       id="linearGradient4261"
       x1="18.454418"
       y1="8.3183727"
       x2="18.454418"
       y2="32.409069"
       gradientUnits="userSpaceOnUse" />
  </defs>
  <metadata
     id="metadata4">
    <rdf:RDF>
      <rdf:Description
         rdf:about="">
        <dc:title />
        <dc:creator />
        <dc:rights />
        <dc:description />
        <dc:format>image/svg+xml</dc:format>
        <dc:language>en</dc:language>
      </rdf:Description>
      <cc:Work
         rdf:about="">
        <dc:format>image/svg+xml</dc:format>
        <dc:type
           rdf:resource="http://purl.org/dc/dcmitype/StillImage" />
        <dc:title>Mixxx 1.12+ iconset</dc:title>
        <dc:subject>
          <rdf:Bag>
            <rdf:li>Mixxx</rdf:li>
            <rdf:li>GUI</rdf:li>
            <rdf:li>Interface</rdf:li>
            <rdf:li>Icons</rdf:li>
          </rdf:Bag>
        </dc:subject>
        <dc:creator>
          <cc:Agent>
            <dc:title>s.brandt@mixxx.org</dc:title>
          </cc:Agent>
        </dc:creator>
        <cc:license
           rdf:resource="http://creativecommons.org/publicdomain/zero/1.0/" />
        <dc:date>2014-04-18</dc:date>
        <dc:source>www.mixxx.org</dc:source>
        <dc:description>Iconset for use in Mixxx 1.12s+. Optimized for 48px (16px) icon size. Contains icons for preference menu and library widget

Grid based on suggestions from http://techbase.kde.org/Projects/Oxygen/Style</dc:description>
        <dc:coverage />
        <dc:language>en</dc:language>
      </cc:Work>
      <cc:License
         rdf:about="http://creativecommons.org/publicdomain/zero/1.0/">
        <cc:permits
           rdf:resource="http://creativecommons.org/ns#Reproduction" />
        <cc:permits
           rdf:resource="http://creativecommons.org/ns#Distribution" />
        <cc:permits
           rdf:resource="http://creativecommons.org/ns#DerivativeWorks" />
      </cc:License>
    </rdf:RDF>
  </metadata>
  <g
     style="display:inline"
     id="ic_library_crates"
     inkscape:label="#g6169"
     transform="translate(0,-20)">
    <g
       style="display:inline;stroke:url(#linearGradient4257)"
       id="ic_library_checked"
       inkscape:label="#g6145"
       transform="matrix(0.415098,0,0,0.415098,-1.660392,19.54706)">
      <path
         sodipodi:nodetypes="csssc"
         inkscape:connector-curvature="0"
         id="path8889-9"
         d="m 9.5,16.147849 c 0,0 0.012953,-5.299848 0,-6.8898022 C 9.487043,7.667617 9.9612148,2.9397423 16,2.8982299 c 6,-0.041246 6.495685,4.7695456 6.5,7.4197851 0.0026,1.589955 0,5.829834 0,5.829834"
         style="fill:none;stroke:url(#linearGradient4259);stroke-width:3.61360478;stroke-linecap:butt;stroke-linejoin:miter;stroke-miterlimit:4;stroke-dasharray:none;stroke-opacity:1" />
      <path
         sodipodi:nodetypes="ssssssssscssscaccssscac"
         inkscape:connector-curvature="0"
         id="rect8885-1"
         d="M 6.0075581,16 C 5.003779,16 4,17 4,18 v 10 c 0,1 1.003779,2 2.0075581,2 H 26.083139 c 1.003779,0 2.007558,-1 2.007558,-2 V 18 c 0,-1 -1.003779,-2 -2.007558,-2 z m 3.2826138,4.568256 H 23.311711 c 0.5241,0 1.000957,0.476401 1.000957,1 0,0.523599 -0.476857,1 -1.000957,1 H 9.2901719 c -0.5436301,0 -1.0351471,-0.52024 -1.0351471,-1 0,-0.47976 0.4854817,-1 1.0351471,-1 z m -0.2399087,4.81814 H 23.071802 c 0.5241,0 1.000957,0.476401 1.000957,1 0,0.523599 -0.476857,1 -1.000957,1 H 9.0502632 c -0.5533949,0 -1.0351471,-0.52024 -1.0351471,-1 0,-0.479761 0.4490535,-1 1.0351471,-1 z"
         style="color:#000000;font-style:normal;font-variant:normal;font-weight:normal;font-stretch:normal;font-size:medium;line-height:normal;font-family:Sans;-inkscape-font-specification:Sans;text-indent:0;text-align:start;text-decoration:none;text-decoration-line:none;letter-spacing:normal;word-spacing:normal;text-transform:none;writing-mode:lr-tb;direction:ltr;baseline-shift:baseline;text-anchor:start;display:inline;overflow:visible;visibility:visible;fill:url(#linearGradient4261);fill-opacity:1;fill-rule:nonzero;stroke:none;stroke-width:2;marker:none;enable-background:accumulate" />
    </g>
  </g>
</svg>

<svg id="svg2" width="10" height="12" version="1.1" xmlns="http://www.w3.org/2000/svg" xmlns:osb="http://www.openswatchbook.org/uri/2009/osb" xmlns:xlink="http://www.w3.org/1999/xlink"><defs id="defs28"><linearGradient id="linearGradient4942"><stop id="stop4944" stop-color="#f60" offset="0"/><stop id="stop4946" stop-color="#de5800" offset="1"/></linearGradient><linearGradient id="linearGradient4257" x1="4" x2="28.091" y1="16.449" y2="16.449" gradientTransform="translate(62.636 -72.272)" gradientUnits="userSpaceOnUse" xlink:href="#linearGradient4942"/><linearGradient id="linearGradient4259" x1="16.045" x2="16.045" y1="8.3184" y2="32.409" gradientTransform="translate(62.636 -72.272)" gradientUnits="userSpaceOnUse" xlink:href="#linearGradient4942"/><linearGradient id="linearGradient4261" x1="18.454" x2="18.454" y1="8.3184" y2="32.409" gradientTransform="translate(62.636 -72.272)" gradientUnits="userSpaceOnUse" xlink:href="#linearGradient4942"/></defs><g id="ic_library_crates" transform="translate(0,-20)"><g id="ic_library_checked" transform="matrix(.4151 0 0 .4151 -1.6604 19.547)"><path id="path8889-9" d="m9.5 16.148s0.012953-5.2998 0-6.8898c-0.012957-1.5904 0.46121-6.3183 6.5-6.3598 6-0.041246 6.4957 4.7695 6.5 7.4198 0.0026 1.59 0 5.8298 0 5.8298" fill="none" stroke="url(#linearGradient4259)" stroke-width="3.6136"/><path id="rect8885-1" d="m6.0076 16c-1.0038 0-2.0076 1-2.0076 2v10c0 1 1.0038 2 2.0076 2h20.076c1.0038 0 2.0076-1 2.0076-2v-10c0-1-1.0038-2-2.0076-2zm3.2826 4.5683h14.022c0.5241 0 1.001 0.4764 1.001 1s-0.47686 1-1.001 1h-14.022c-0.54363 0-1.0351-0.52024-1.0351-1s0.48548-1 1.0351-1zm-0.23991 4.8181h14.022c0.5241 0 1.001 0.4764 1.001 1s-0.47686 1-1.001 1h-14.022c-0.55339 0-1.0351-0.52024-1.0351-1 0-0.47976 0.44905-1 1.0351-1z" color="#000000" fill="url(#linearGradient4261)" style="text-decoration-line:none;text-indent:0;text-transform:none"/></g></g></svg>
